svg/fluentui-system-icons/ic_fluent_animal_turtle_28_regular.svg

<svg width="28" height="28" viewBox="0 0 28 28" fill="none" xmlns="http://www.w3.org/2000/svg">
<path d="M12.7196 5C10.5549 5 9.01166 5.65558 7.90293 6.76068C6.82201 7.83806 6.22607 9.27363 5.79738 10.692L5.09947 13.0011H2.75195C2.33774 13.0011 2.00195 13.3369 2.00195 13.7511C2.00195 15.0952 2.76527 16.2352 3.87433 16.8517L3.28551 18.2839C2.87281 19.2876 3.35051 20.4373 4.35456 20.8512C4.59198 20.9491 4.84629 20.9995 5.10311 20.9995H7.2972C8.05914 20.9995 8.75191 20.5588 9.07581 19.8695L9.78217 18.3662C11.7523 18.639 13.7506 18.6422 15.7214 18.3758L16.4232 19.8695C16.7471 20.5588 17.4399 20.9995 18.2018 20.9995H20.374C20.6312 20.9995 20.8858 20.9489 21.1235 20.8508C22.1274 20.4364 22.6045 19.2865 22.1913 18.2829L21.6628 16.9994H23.9995C25.0122 16.9994 25.9997 16.216 25.9997 15.1134V13.9994C25.9997 12.2937 24.5191 11.0023 22.8179 11.0023H19.8688L19.7748 10.6914C19.3417 9.26019 18.7112 7.82638 17.5961 6.75169C16.4574 5.65425 14.8864 5 12.7196 5ZM21.2294 15.4994L20.3226 12.5023H22.8179C23.8029 12.5023 24.4997 13.23 24.4997 13.9994V15.1134C24.4997 15.2485 24.3299 15.4994 23.9995 15.4994H21.2294ZM20.162 17.2942L20.8042 18.854C20.9027 19.0933 20.7885 19.3663 20.5511 19.4643C20.4949 19.4875 20.4348 19.4995 20.374 19.4995H18.2018C18.0221 19.4995 17.8578 19.3955 17.7808 19.2316L17.2551 18.1127C18.2371 17.908 19.2084 17.6352 20.162 17.2942ZM8.25067 18.0984L7.7182 19.2316C7.64119 19.3955 7.47696 19.4995 7.2972 19.4995H5.10311C5.04246 19.4995 4.98237 19.4876 4.92624 19.4644C4.68882 19.3665 4.57443 19.0936 4.67283 18.8542L5.30552 17.3154C5.37996 17.3244 5.45498 17.3314 5.53051 17.3362C6.42388 17.6499 7.33254 17.904 8.25067 18.0984ZM4.64611 14.5011L4.37501 15.3981C4.0522 15.164 3.80291 14.8528 3.65486 14.5011H4.64611ZM7.23323 11.126C7.64083 9.77739 8.14881 8.63345 8.96185 7.82308C9.74709 7.04042 10.8878 6.5 12.7196 6.5C14.5564 6.5 15.7354 7.04159 16.5552 7.83172C17.3986 8.64461 17.9349 9.79011 18.339 11.1258L19.766 15.8424C15.258 17.4836 10.3157 17.4836 5.80776 15.8423L7.23323 11.126Z" fill="#212121"/>
</svg>

<svg xmlns="http://www.w3.org/2000/svg" width="28" height="28"><path d="M12.72 5c-2.165 0-3.708.656-4.817 1.76-1.081 1.078-1.677 2.514-2.106 3.932l-.698 2.31H2.752a.75.75 0 0 0-.75.75c0 1.343.763 2.483 1.872 3.1l-.588 1.432A1.968 1.968 0 0 0 5.103 21h2.194c.762 0 1.455-.441 1.779-1.13l.706-1.504c1.97.273 3.969.276 5.94.01l.701 1.493A1.965 1.965 0 0 0 18.202 21h2.172a1.965 1.965 0 0 0 1.817-2.716L21.663 17H24c1.012 0 2-.783 2-1.886V14c0-1.705-1.48-2.997-3.182-2.997h-2.95l-.093-.31c-.433-1.432-1.064-2.866-2.179-3.94C16.457 5.654 14.886 5 12.72 5Zm8.51 10.5-.907-2.998h2.495c.985 0 1.682.728 1.682 1.497v1.114c0 .136-.17.386-.5.386h-2.77Zm-1.068 1.794.642 1.56a.468.468 0 0 1-.43.646h-2.172a.465.465 0 0 1-.421-.268l-.526-1.12a21.913 21.913 0 0 0 2.907-.818Zm-11.911.804-.533 1.134a.465.465 0 0 1-.42.268H5.102a.468.468 0 0 1-.43-.645l.633-1.54c.074.01.149.016.225.021a21.77 21.77 0 0 0 2.72.762Zm-3.605-3.597-.271.897a2.14 2.14 0 0 1-.72-.897h.991Zm2.587-3.375c.408-1.349.916-2.493 1.729-3.303C9.747 7.04 10.888 6.5 12.72 6.5c1.836 0 3.015.542 3.835 1.332.844.813 1.38 1.958 1.784 3.294l1.427 4.716a20.4 20.4 0 0 1-13.958 0l1.425-4.716Z"/></svg>
